assets/efishery/ikan-torpedo-patin.svg

<svg width="24" height="25" viewBox="0 0 24 25" fill="none" xmlns="http://www.w3.org/2000/svg">
<path d="M17.75 10.5234C17.75 10.7996 17.5261 11.0234 17.25 11.0234C16.9739 11.0234 16.75 10.7996 16.75 10.5234C16.75 10.2473 16.9739 10.0234 17.25 10.0234C17.5261 10.0234 17.75 10.2473 17.75 10.5234Z" fill="#1D1D1D"/>
<path fill-rule="evenodd" clip-rule="evenodd" d="M11.1259 2.80197C12.3028 3.38585 13.2679 4.34126 13.8243 5.06668C15.0519 5.3651 16.2314 5.89764 17.2556 6.57918C18.6495 7.50672 19.8132 8.74939 20.4009 10.1344C20.6184 10.3963 20.8494 10.6364 21.0831 10.8714C21.1349 10.9235 21.1879 10.9763 21.2414 11.0297C21.4429 11.2307 21.6516 11.4389 21.8285 11.638C22.2624 12.1264 22.7672 12.8432 22.4615 13.7603C22.2546 14.381 21.7982 14.7813 21.2561 15.0107C20.7369 15.2304 20.1211 15.3044 19.4922 15.3044C18.2318 15.3044 16.6729 15.0034 15.1341 14.6266C14.7335 14.5285 14.3291 14.4239 13.9265 14.3162C14.0008 14.8007 13.9505 15.2895 13.855 15.6952C13.7553 16.119 13.5927 16.5231 13.3964 16.8568C13.2158 17.1639 12.9472 17.5134 12.5854 17.6943C12.2971 17.8384 11.9489 17.7822 11.7206 17.5548C11.717 17.5513 11.7093 17.5441 11.6976 17.5335C11.6743 17.5123 11.6347 17.4773 11.5779 17.4305C11.4642 17.3369 11.2813 17.1957 11.0214 17.0225C10.502 16.6761 9.67301 16.2004 8.47143 15.7198C7.34625 15.2697 6.07844 15.1484 5.06247 15.1484C4.70838 15.1484 4.39109 15.1631 4.12925 15.1821C4.65419 16.2586 5.50453 16.7797 6.3746 17.0442C7.26415 17.3147 8.13584 17.3066 8.69803 17.3014C8.76896 17.3008 8.83495 17.3002 8.89544 17.3002L8.89969 17.3002C8.94952 17.3 9.16277 17.2993 9.3674 17.43C9.50661 17.5189 9.65704 17.68 9.7082 17.9206C9.75432 18.1375 9.69618 18.3127 9.65603 18.4026C9.58434 18.563 9.47248 18.6675 9.43834 18.6994C9.38578 18.7485 9.32901 18.793 9.2818 18.8282C9.16689 18.9138 8.99139 19.0288 8.81365 19.1452C8.72941 19.2004 8.64453 19.256 8.56551 19.3089C8.29082 19.4927 8.01683 19.6874 7.79729 19.8816C7.5579 20.0934 7.47304 20.2279 7.45717 20.2728C7.45607 20.2796 7.44697 20.3365 7.48577 20.4849C7.51992 20.6155 7.56757 20.7383 7.6274 20.8925C7.64742 20.944 7.66889 20.9994 7.69158 21.0594C7.73121 21.1643 7.77751 21.2931 7.80951 21.4235C7.8393 21.545 7.87511 21.7373 7.83924 21.9489C7.79704 22.1979 7.65809 22.4487 7.39543 22.6096C7.17092 22.7472 6.92901 22.7731 6.74996 22.7731C5.90828 22.7731 5.22822 22.2132 4.73587 21.6338C4.22039 21.0272 3.76754 20.2319 3.39181 19.4285C2.64538 17.8323 2.11727 16.0134 2.02203 15.1562C2.02035 15.1412 2.01913 15.126 2.01837 15.1109C1.80606 10.8646 3.45854 8.19556 5.6894 6.64507C6.67198 5.96216 7.75047 5.50688 8.80205 5.22092C8.70083 5.11069 8.56457 4.99462 8.39722 4.87987C7.95756 4.57837 7.43021 4.3712 7.12052 4.30927C6.82307 4.24977 6.59074 4.01696 6.53187 3.71938C6.473 3.4218 6.59919 3.11806 6.85159 2.94979C8.34442 1.95457 9.89629 2.19192 11.1259 2.80197ZM7.63818 11.2743C6.83975 11.2866 6.12875 11.433 5.41455 11.7901C4.7951 12.0998 4.20325 12.5533 3.56546 13.1564C3.85642 10.5317 5.0817 8.89414 6.54547 7.87679C8.37798 6.60316 10.6696 6.24651 12.2199 6.322C12.9952 6.38271 13.7798 6.56907 14.5318 6.85452C13.6834 7.49478 13.0397 8.28561 12.7096 9.22054C12.3615 10.2061 12.3813 11.2952 12.8104 12.4524C12.6057 12.3947 12.4027 12.3372 12.2021 12.2803L12.2011 12.2801C11.8079 12.1687 11.4229 12.0596 11.052 11.9567C10.3739 11.7685 9.73912 11.6001 9.1907 11.4784C8.85155 11.4032 8.52433 11.3409 8.22832 11.3053C8.15339 11.2962 8.07972 11.2888 8.00766 11.2835C7.91779 11.2767 7.83168 11.2731 7.74996 11.2731C7.71253 11.2731 7.67527 11.2735 7.63818 11.2743ZM5.2995 13.6504C6.37747 13.6684 7.74946 13.8155 9.02851 14.3271C10.3269 14.8464 11.248 15.3707 11.8535 15.7744C11.9677 15.8505 12.0705 15.9223 12.1626 15.9889C12.2557 15.8078 12.3395 15.5873 12.3949 15.3517C12.5221 14.8113 12.4637 14.3921 12.2958 14.1461C12.2005 14.1065 12.0658 14.0513 11.9011 13.9854C11.5561 13.8474 11.0817 13.6638 10.5629 13.4807C10.0424 13.297 9.48592 13.1169 8.97472 12.9835C8.61827 12.8905 8.30843 12.827 8.05996 12.7958C8.00417 12.7889 7.95251 12.7836 7.90495 12.7799C7.84907 12.7756 7.79733 12.7734 7.74997 12.7734C7.72219 12.7734 7.69468 12.7736 7.66743 12.774C6.7305 12.7944 5.92964 13.1607 5.2995 13.6504ZM9.47623 3.81173C9.69581 3.98374 9.90553 4.18323 10.0773 4.4101C10.1504 4.50652 10.2194 4.61179 10.2796 4.72524C10.5743 4.68409 10.9043 4.6477 11.2416 4.62555C10.9954 4.44575 10.7327 4.28132 10.4593 4.14569C10.1341 3.98434 9.80536 3.86801 9.47623 3.81173ZM15.5957 7.33543C14.6242 7.94324 13.9542 8.69909 13.6525 9.55352C13.3371 10.4467 13.3954 11.5309 14.0579 12.7983C14.5346 12.9274 15.0145 13.053 15.4909 13.1696C17.0145 13.5428 18.4244 13.8044 19.4922 13.8044C20.0273 13.8044 20.4154 13.7377 20.6715 13.6293C20.9048 13.5306 20.9953 13.4153 21.0385 13.2859C21.0661 13.203 21.0946 13.0704 20.7071 12.6342C20.5631 12.4722 20.3979 12.3073 20.2023 12.1121C20.1441 12.054 20.0833 11.9932 20.0194 11.9291C19.7519 11.66 19.4528 11.35 19.1657 10.9934C19.1191 10.9354 19.0813 10.8708 19.0536 10.8017C18.6253 9.73092 17.6808 8.66388 16.4246 7.82797C16.1587 7.651 15.8815 7.48625 15.5957 7.33543ZM4.26984 17.653C4.41345 18.0304 4.57449 18.4165 4.75058 18.7931C5.09965 19.5395 5.48619 20.2004 5.87889 20.6625C5.92912 20.7216 5.97761 20.7753 6.02433 20.8241C5.95581 20.5465 5.90479 20.1641 6.04276 19.7734C6.19218 19.3502 6.52541 19.0041 6.80337 18.7582C6.82809 18.7363 6.85313 18.7146 6.87841 18.693C6.57483 18.6449 6.25742 18.5764 5.93826 18.4794C5.37583 18.3084 4.79948 18.0465 4.26984 17.653ZM6.76014 21.2729C6.76416 21.2724 6.76634 21.2724 6.76642 21.2724C6.76645 21.2725 6.76684 21.2724 6.76642 21.2724L6.76014 21.2729Z" fill="#1D1D1D"/>
</svg>

<svg viewBox="0 0 24 25" xmlns="http://www.w3.org/2000/svg">
  <path d="M17.75 10.523a.5.5 0 1 1-1 0 .5.5 0 0 1 1 0z"/>
  <path fill-rule="evenodd" clip-rule="evenodd" d="M11.126 2.802c1.177.584 2.142 1.54 2.698 2.265 1.228.298 2.407.83 3.432 1.512 1.393.928 2.557 2.17 3.145 3.555.217.262.448.502.682.737l.158.159c.202.2.41.409.587.608.434.488.94 1.205.634 2.122-.207.621-.664 1.021-1.206 1.25-.52.22-1.135.294-1.764.294-1.26 0-2.82-.3-4.358-.677a58.89 58.89 0 0 1-1.207-.31c.074.484.024.973-.072 1.378-.1.424-.262.828-.459 1.162-.18.307-.449.656-.81.837a.75.75 0 0 1-.888-.16 3.264 3.264 0 0 0-.12-.104 6.91 6.91 0 0 0-.557-.407c-.519-.347-1.348-.823-2.55-1.303-1.125-.45-2.393-.572-3.409-.572-.354 0-.67.015-.933.034.525 1.077 1.376 1.598 2.246 1.862.89.27 1.76.263 2.323.257H8.9c.05-.001.263-.002.467.129a.772.772 0 0 1 .289.973c-.072.16-.184.265-.218.296-.052.05-.109.094-.156.13-.115.085-.29.2-.468.316-.085.055-.17.111-.248.164a7.412 7.412 0 0 0-.769.573c-.24.211-.324.346-.34.39a.554.554 0 0 0 .029.213c.034.13.082.253.141.407l.065.167c.04.105.086.234.118.364a1.3 1.3 0 0 1 .03.526.951.951 0 0 1-.445.66 1.223 1.223 0 0 1-.645.164c-.842 0-1.522-.56-2.014-1.14-.516-.606-.968-1.401-1.344-2.204-.747-1.597-1.275-3.416-1.37-4.273a.744.744 0 0 1-.004-.045c-.212-4.246 1.44-6.915 3.671-8.466.983-.683 2.061-1.138 3.113-1.424a2.38 2.38 0 0 0-.405-.341c-.44-.302-.967-.509-1.276-.57a.75.75 0 0 1-.27-1.36c1.493-.995 3.045-.758 4.275-.148zm-3.488 8.472c-.798.013-1.51.159-2.223.516-.62.31-1.212.763-1.85 1.366.291-2.624 1.517-4.262 2.98-5.28 1.833-1.273 4.125-1.63 5.675-1.554.775.06 1.56.247 2.312.533-.849.64-1.492 1.43-1.822 2.366-.349.985-.329 2.074.1 3.231a384.59 384.59 0 0 1-.608-.172l-1.15-.323a38.201 38.201 0 0 0-1.861-.479c-.34-.075-.667-.137-.963-.173a4.683 4.683 0 0 0-.478-.032l-.112.001zM5.3 13.65c1.077.018 2.45.165 3.729.677 1.298.52 2.219 1.044 2.825 1.447.114.077.216.148.309.215a2.84 2.84 0 0 0 .232-.637c.127-.54.069-.96-.1-1.206a35.328 35.328 0 0 0-1.733-.665 20.42 20.42 0 0 0-1.587-.498 7.425 7.425 0 0 0-.915-.187 3.448 3.448 0 0 0-.31-.023l-.083.001c-.936.02-1.737.387-2.367.876zm4.176-9.838c.22.172.43.371.601.598.073.097.142.202.203.315.294-.04.624-.077.962-.1a5.422 5.422 0 0 0-.783-.48 3.584 3.584 0 0 0-.983-.333zm6.12 3.523c-.972.608-1.642 1.364-1.944 2.219-.315.893-.257 1.977.406 3.244.477.13.957.255 1.433.372 1.524.373 2.933.634 4.001.634.535 0 .923-.066 1.18-.175.233-.098.323-.214.366-.343.028-.083.057-.216-.33-.652-.145-.162-.31-.327-.506-.522a106.26 106.26 0 0 1-.183-.183c-.267-.269-.566-.579-.853-.936a.754.754 0 0 1-.112-.191c-.429-1.071-1.373-2.138-2.63-2.974a9.498 9.498 0 0 0-.828-.493zM4.27 17.653c.143.377.304.764.48 1.14.35.747.736 1.407 1.129 1.87.05.059.099.112.145.161-.068-.277-.12-.66.019-1.05.15-.424.482-.77.76-1.016l.075-.065a7.01 7.01 0 0 1-.94-.214 5.437 5.437 0 0 1-1.668-.826zm2.49 3.62h.006-.006z"/>
</svg>
